images/diagram-03.svg

<svg width="70" height="70" viewBox="0 0 70 70" fill="none" xmlns="http://www.w3.org/2000/svg">
<g clip-path="url(#clip0_1_554)">
<path d="M32.6496 32.7351H34.9817V43.2296H32.6496V32.7351Z" fill="#2196F3"/>
<path d="M41.978 37.3993H44.3101V43.2296H41.978V37.3993Z" fill="#2196F3"/>
<path d="M23.3211 40.8975H25.6532V43.2296H23.3211V40.8975Z" fill="#2196F3"/>
<path d="M16.3248 39.7314H18.6569V43.2295H16.3248V39.7314Z" fill="#2196F3"/>
<path d="M3.49817 61.8865H59.4689C61.4007 61.8865 62.967 60.3202 62.967 58.3883V53.7241C62.967 51.7923 61.4007 50.2259 59.4689 50.2259H58.3028V21.1469L64.9262 14.8725C66.4635 15.6303 68.3242 15.1702 69.3302 13.7816C70.3369 12.3935 70.1957 10.4821 68.9966 9.25684C67.7975 8.03157 65.8901 7.8488 64.4798 8.82412C63.0701 9.80001 62.569 11.6499 63.2933 13.2037L58.3028 17.9345V15.2443C58.3028 13.3124 56.7365 11.7461 54.8046 11.7461H8.16239C6.23054 11.7461 4.66422 13.3124 4.66422 15.2443V50.2259H3.49817C1.56632 50.2259 0 51.7923 0 53.7241V58.3883C0 60.3202 1.56632 61.8865 3.49817 61.8865ZM66.4652 10.58C67.1091 10.58 67.6312 11.1021 67.6312 11.7461C67.6312 12.39 67.1091 12.9121 66.4652 12.9121C65.8212 12.9121 65.2991 12.39 65.2991 11.7461C65.2991 11.1021 65.8212 10.58 66.4652 10.58ZM6.99634 15.2443C6.99634 14.6003 7.51844 14.0782 8.16239 14.0782H54.8046C55.4486 14.0782 55.9707 14.6003 55.9707 15.2443V20.1414L53.6386 22.3573V17.5764C53.6386 16.9324 53.1165 16.4103 52.4725 16.4103H10.4945C9.85055 16.4103 9.32845 16.9324 9.32845 17.5764V46.7278C9.32845 47.3717 9.85055 47.8938 10.4945 47.8938H52.4725C53.1165 47.8938 53.6386 47.3717 53.6386 46.7278V25.5651L55.9707 23.3554V50.2259H6.99634V15.2443ZM17.4908 30.403C15.9131 30.3984 14.5279 31.4495 14.1083 32.9703C13.6886 34.491 14.3383 36.104 15.6951 36.9091C17.0513 37.7142 18.7793 37.5121 19.9129 36.4149L23.9662 38.4487C24.4371 38.6844 25.0081 38.5739 25.3583 38.1805L33.9745 28.4871L42.4443 34.8338C42.8987 35.1743 43.5329 35.1378 43.9452 34.7478L51.3065 27.7748V45.5617H11.6606V18.7424H51.3065V24.5619L43.0564 32.3747L34.5154 25.9716C34.0303 25.6084 33.3476 25.6767 32.9445 26.1294L24.2099 35.9571L20.9446 34.3242C20.9685 34.1841 20.9833 34.0429 20.989 33.9012C20.989 31.9693 19.4227 30.403 17.4908 30.403ZM18.6569 33.9012C18.6569 34.5451 18.1348 35.0672 17.4908 35.0672C16.8469 35.0672 16.3248 34.5451 16.3248 33.9012C16.3248 33.2572 16.8469 32.7351 17.4908 32.7351C18.1348 32.7351 18.6569 33.2572 18.6569 33.9012ZM25.6532 52.5581H37.3138V53.7241C37.3138 54.3681 36.7917 54.8902 36.1477 54.8902H26.8193C26.1753 54.8902 25.6532 54.3681 25.6532 53.7241V52.5581ZM2.33211 53.7241C2.33211 53.0802 2.85422 52.5581 3.49817 52.5581H23.3211V53.7241C23.3211 55.656 24.8874 57.2223 26.8193 57.2223H36.1477C38.0796 57.2223 39.6459 55.656 39.6459 53.7241V52.5581H59.4689C60.1128 52.5581 60.6349 53.0802 60.6349 53.7241V58.3883C60.6349 59.0323 60.1128 59.5544 59.4689 59.5544H3.49817C2.85422 59.5544 2.33211 59.0323 2.33211 58.3883V53.7241Z" fill="#212121"/>
</g>
<rect x="0.5" y="0.5" width="69" height="69" stroke="black"/>
<rect x="0.5" y="0.5" width="69" height="69" stroke="black" stroke-opacity="0.2"/>
<defs>
<clipPath id="clip0_1_554">
<rect width="70" height="70" fill="white"/>
</clipPath>
</defs>
</svg>

<svg xmlns="http://www.w3.org/2000/svg" width="70" height="70" fill="none"><g clip-path="url(#a)"><path fill="#2196F3" d="M32.65 32.735h2.332V43.23H32.65V32.735ZM41.978 37.4h2.332v5.83h-2.332V37.4ZM23.321 40.898h2.332v2.332h-2.332v-2.332ZM16.325 39.731h2.332v3.498h-2.332v-3.498Z"/><path fill="#212121" d="M3.498 61.886h55.97a3.498 3.498 0 0 0 3.499-3.498v-4.664a3.498 3.498 0 0 0-3.498-3.498h-1.166v-29.08l6.623-6.274a3.518 3.518 0 1 0-1.633-1.668l-4.99 4.73v-2.69a3.498 3.498 0 0 0-3.498-3.498H8.162a3.498 3.498 0 0 0-3.498 3.498v34.982H3.498A3.498 3.498 0 0 0 0 53.724v4.664a3.498 3.498 0 0 0 3.498 3.498ZM66.465 10.58a1.166 1.166 0 1 1 0 2.332 1.166 1.166 0 0 1 0-2.332ZM6.996 15.244c0-.644.522-1.166 1.166-1.166h46.643c.644 0 1.166.522 1.166 1.166v4.897l-2.332 2.216v-4.78c0-.645-.523-1.167-1.167-1.167H10.495c-.644 0-1.167.522-1.167 1.166v29.152c0 .644.523 1.166 1.167 1.166h41.977c.645 0 1.167-.522 1.167-1.166V25.565l2.332-2.21v26.87H6.996v-34.98Zm10.495 15.159a3.498 3.498 0 1 0 2.422 6.012l4.053 2.034c.471.235 1.042.125 1.392-.268l8.616-9.694 8.47 6.347c.455.34 1.089.304 1.501-.086l7.361-6.973v17.787H11.661v-26.82h39.645v5.82l-8.25 7.813-8.54-6.403a1.167 1.167 0 0 0-1.572.157l-8.734 9.828-3.265-1.633c.023-.14.038-.281.044-.423a3.498 3.498 0 0 0-3.498-3.498Zm1.166 3.498a1.166 1.166 0 1 1-2.332 0 1.166 1.166 0 0 1 2.332 0Zm6.996 18.657h11.66v1.166c0 .644-.521 1.166-1.165 1.166h-9.329a1.166 1.166 0 0 1-1.166-1.166v-1.166Zm-23.32 1.166c0-.644.521-1.166 1.165-1.166h19.823v1.166a3.498 3.498 0 0 0 3.498 3.498h9.329a3.498 3.498 0 0 0 3.498-3.498v-1.166h19.823c.644 0 1.166.522 1.166 1.166v4.664c0 .644-.522 1.166-1.166 1.166H3.499a1.166 1.166 0 0 1-1.167-1.166v-4.664Z"/></g><path stroke="#000" d="M.5.5h69v69H.5z"/><path stroke="#000" stroke-opacity=".2" d="M.5.5h69v69H.5z"/><defs><clipPath id="a"><path fill="#fff" d="M0 0h70v70H0z"/></clipPath></defs></svg>
